!!!COM: Bach, Johann Sebastian
!!!OPR: Joh. Seb. Bachs vierstimmige Choralgesänge
!!!XEN: Four-part Chorales
!!!OTL: 45. Diess sind die heil'gen zehn Gebot'
!!!SCT: BWV 298
!!!SCA: Thematisch-systematisches Verzeichnis der musikalischen Werke Johann Sebastian Bach: Bach-Werke-Verzeichnis (Schmieder)
!!!YOR: Bach Gesellschaft Edition xxxix
!!!ENC: Steven Rasmussen
!!!CDT: 1685/3//-1750/7/28/
!!!OCY: Deutschland
!!!YEC: Copyright (c) 1994, 2000 Center for Computer Assisted Research in the Humanities
!!!YEM: Rights to all derivative editions reserved
!!!YEN: United States of America
**kern	**silbe	**kern	**silbe	**kern	**kern	**silbe
*I:[BASSO]	*I:[BASSO]	*I:[TENORE]	*I:[TENORE]	*I:[ALTO]	*I:[SOPRANO]	*I:[SOPRANO]
*clefF4	*	*clefGv2	*	*clefG2	*clefG2	*
*k[]	*	*k[]	*	*k[]	*k[]	*
*C:	*	*C:	*	*C:	*C:	*
*M4/4	*	*M4/4	*	*M4/4	*M4/4	*
8GL	.	4B	.	4d	4g	Diess
8FJ	.	.	.	.	.	.
=1	=1	=1	=1	=1	=1	=1
8EL	.	4c	.	4e	4g	sind
8DJ	.	.	.	.	.	.
8CL	.	4d	.	4f	4g	die
8BBJ	.	.	.	.	.	.
8CL	.	4d	.	4e	4g	heil'-
8DJ	.	.	.	.	.	.
8EL	.	4c	.	4e	4g	-gen
8FJ	.	.	.	.	.	.
=2	=2	=2	=2	=2	=2	=2
4G	.	8BL	.	4.d	8gL	zehn
.	.	8AJ	.	.	8aJ	.
4GG	.	4G	.	.	4b	Ge-
.	.	.	.	16eLL	.	.
.	.	.	.	16fJJ	.	.
4C;	.	4G;	.	4e;	4cc;	-bot,
8FL	.	8AL	.	8fL	4cc	die
8EJ	.	8cJ	.	8gJ	.	.
=3	=3	=3	=3	=3	=3	=3
8DL	.	4f	.	8aL	4dd	uns
8EJ	.	.	.	8gJ	.	.
8FL	.	8AL	.	4f	4dd	gab
8GJ	.	8BJ	.	.	.	.
8AL	.	4c	.	4.f	4cc	un-
8BJ	.	.	.	.	.	.
4c	.	4c	.	.	4g	-ser
.	.	.	.	8e	.	.
=4	=4	=4	=4	=4	=4	=4
8GL	.	8BL	.	4d	8gL	Her-
8FJ	.	8AJ	.	.	8aJ	.
8EL	.	4G	.	8gL	4b	-re
8DJ	.	.	.	8fJ	.	.
4C;	.	4G;	.	4e;	4cc;	Gott
8FL	.	4A	.	4f	4cc	durch
8EJ	.	.	.	.	.	.
=5	=5	=5	=5	=5	=5	=5
(8D	.	4A	.	4f	4dd	Mo-
4C)	.	.	.	.	.	.
.	.	4d	.	4f	4dd	-se,
8BB	.	.	.	.	.	.
8CL	.	4G	.	4f	4cc	sei-
8DJ	.	.	.	.	.	.
8EL	.	8cL	.	4e	4g	-nen
8DJ	.	8B-J	.	.	.	.
=6	=6	=6	=6	=6	=6	=6
(8C#	.	4A	.	8eL	4a	Die-
4D)	.	.	.	8fJ	.	.
.	.	8B-L	.	4e	4g	-ner
8C#	.	8AJ	.	.	.	.
4D;	.	4A;	.	4d;	4f;	treu,
8CnL	.	4c	.	4e	4g	hoch
8BBJ	.	.	.	.	.	.
=7	=7	=7	=7	=7	=7	=7
(8AA	.	8cL	.	4f	4a	auf
4A)	.	8dJ	.	.	.	.
.	.	4d	.	8fL	4b	dem
8G#	.	.	.	8eJ	.	.
2A	.	2c	.	2e	2cc	Berg
=8	=8	=8	=8	=8	=8	=8
4D	.	8dL	.	4f#	8b-L	Si-
.	.	8cJ	.	.	8aJ	.
8EL	.	8B-L	.	8gL	8gL	-na-
8F#J	.	8AJ	.	8dJ	8aJ	.
4G;	.	4G;	.	4d;	4b-;	-i.
8DL	.	4A	Ky-	4fn	4a	Ky-
8CJ	.	.	.	.	.	.
=9	=9	=9	=9	=9	=9	=9
8BBL	.	4.d	-rie	4f	4g	-rie
8GGJ	.	.	.	.	.	.
4C	e-	.	.	4e	4g	e-
.	.	[8c	e-	.	.	.
2GG;	-leis'.	8cL]	.	2d;	2g;	-leis'.
.	.	16BL	.	.	.	.
.	.	16AJJ	.	.	.	.
.	.	4B;	-leis.	.	.	.
==|!	==|!	==|!	==|!	==|!	==|!	==|!
*-	*-	*-	*-	*-	*-	*-
!!!RWG: Key is interpreted using the Humdrum key tool.
!!!URL-pdf: https://s9.imslp.org/files/imglnks/usimg/6/6b/IMSLP24489-PMLP09471-CCARH_Bach_Chorales.pdf#page=31 Musedata edition
!!!URL-pdf: https://s9.imslp.org/files/imglnks/usimg/7/7a/IMSLP04155-Bach_-_BGA_253-438.pdf#page=24 	Bach-Gesellschaft Ausgabe, Band 39 (pp.175-276) Leipzig: Breitkopf und Härtel, 1892. Plate B.W. XXXIX.
!!!END: 1994/05/17
!!!EMD: Converted from MuseData to Humdrum Dec 19, 2000, by Andreas Kornstaedt using muse2kern.
!!!EED: Craig Stuart Sapp
!!!EEV: 2024/03/31
!!!ONB: Some non-unicode characters
!!!filter-keyboard: satb2gs
